X: 32674
T: Pokarekare Ana
R: jig
M: 6/8
K: Gmajor
D B2 A|G3 (B3|B2) D G2 F|(E6|E2) E A2 G|
F3 (A3|A2) D E2 F|(G6|G2) G A2 B|
c3 (c3|c2) E G2 c|(B6|B2) G GAB|
A3 (A3|A2) F E2 F|(G6|G2)||

